epam-assets/icon-sources/18/editor-chart-table.svg

<svg xmlns="http://www.w3.org/2000/svg" width="18" height="18" fill="none" viewBox="0 0 18 18">
  <path fill="#6C6F80" fill-rule="evenodd" d="M6.75 7.515h4.5v8.235h-4.5V7.515Zm6 8.235H15c.825 0 1.5-.675 1.5-1.5V7.5h-3.75v8.25Zm2.171-13.5H3.08c-.868 0-1.579.675-1.579 1.5V6h15V3.75c0-.825-.71-1.5-1.579-1.5ZM1.5 14.25c0 .825.675 1.5 1.5 1.5h2.25V7.5H1.5v6.75Z" clip-rule="evenodd"/>
</svg>

<svg width="18" height="18" viewBox="0 0 18 18" fill="none" xmlns="http://www.w3.org/2000/svg">
<g id="18/editor-chart-table">
<path id="icon" fill-rule="evenodd" clip-rule="evenodd" d="M6.75 7.515H11.25V15.75H6.75V7.515ZM12.75 15.75H15C15.825 15.75 16.5 15.075 16.5 14.25V7.5H12.75V15.75ZM14.9211 2.25H3.07895C2.21053 2.25 1.5 2.925 1.5 3.75V6H16.5V3.75C16.5 2.925 15.7895 2.25 14.9211 2.25ZM1.5 14.25C1.5 15.075 2.175 15.75 3 15.75H5.25V7.5H1.5V14.25Z" fill="#6C6F80"/>
</g>
</svg>
